X: 346
T: Fun fangshao
L: 1/16
M: 2/4
K: A
B2 B2 e2 f2 [I:setbarnb 1]| 
e2 d c2< B2 c | 
e2 e G B2 c B | 
A2 G FE4 | 
B2> F2 G2 c2 | 
B2 F A2< E2 F | 
A2 A G B2 F A | 
E8 |]

@@@ Tune index: 9220
